X:8628
T:Kings Bridge Assembly,bass part. JNu.30
M:6/8
L:1/8
Q:120
S:James Nuttall MS,c1830,Rossendale,East Lancs.
R:Jig
O:England
A:East Lancashire
Z:Chris Partington
K:D
"thirdo,read as bass clef"B2zB2z|B2zB2z|e2zd2z|fff f2z|!
B2BB2B|B2zB2z|e2ef2F|BdfB3::!
B2BB2B|e2ee3|e2ze2z|B2zB2z|!
B2zB2z|e2ze2z|f2zFGA|B2BB3:|]
